X:108
T:Trip to Lewsom. ThoH.108
Q:1/2=80
M:C|
L:1/8
B:Thompson's Compleat Collection of 120 Favourite Hornpipes.
Z:Village Music Project, Simon Wilson 2016
O:England.
K:F
FAcf afcA|fcAF cAFC|FAcf afed|eg=Bdc4:|
|:cdef gaba|gbeg BdGB|CDEF GABb|afcef2F2:|

